X: 4095
T: Blood Red Blue Moon
R: jig
M: 6/8
K: Gmajor
|:G3 AGF|G3 EGD|G3 AGF|GBd egd|
G3 AGF|G3 EGD|G3 AGF|1 G3 GBA:|2 G3 GBd||
|:e3 efg|e3 dBG|A3 AGA|BGE EGD|
e3 efg|e3 dBG|A3 ABA|G3 GBd|
e3 efg|e3 dBG|A3 AGA|BGE EGD|
G3 AGF|G3 EGD|B3 AGF|G3 GBA||

